svgs/moscow_wi_fi_autologin.svg

<svg width="192" height="192" viewBox="0 0 192 192" fill="none" xmlns="http://www.w3.org/2000/svg">
<path d="M121.65 44.5672C113.444 41.1617 104.739 38.7078 96.0001 38.6524C87.3003 38.5974 78.5684 41.2953 70.35 44.5672M130.201 29.5497C119.259 25.0089 107.653 21.0748 96 21.0009C84.4004 20.9275 72.7578 25.187 61.8 29.5497M72.0767 82.0238L95.0368 115.239C95.4838 115.92 96.5153 115.927 96.9725 115.252L120.671 81.9888C121.193 81.2192 122.409 81.3629 122.721 82.231L152.936 169.538C153.194 170.254 152.639 171 151.85 171H121.677C121.181 171 120.74 170.694 120.585 170.242L113.411 149.304C113.112 148.431 111.897 148.271 111.364 149.035L96.9488 169.691C96.4936 170.343 95.4939 170.343 95.0387 169.691L80.6236 149.035C80.0909 148.271 78.8758 148.431 78.5767 149.304L71.4027 170.242C71.2477 170.694 70.8073 171 70.3109 171H40.1503C39.3574 171 38.8026 170.248 39.0664 169.53L70.0205 82.2449C70.3402 81.3756 71.5644 81.2439 72.0767 82.0238ZM78.9 59.6606C84.3788 57.4793 90.2003 56.2672 96 56.3039C101.827 56.3408 107.629 57.3903 113.1 59.6606L96 78.6821L78.9 59.6606Z" stroke="black" stroke-width="10" stroke-linecap="round" stroke-linejoin="round"/>
</svg>

<svg xmlns="http://www.w3.org/2000/svg" width="192" height="192" fill="none"><path stroke="#000" stroke-linecap="round" stroke-linejoin="round" stroke-width="10" d="M121.65 44.567c-8.206-3.405-16.911-5.86-25.65-5.915-8.7-.055-17.432 2.643-25.65 5.915m59.851-15.017C119.259 25.009 107.653 21.075 96 21c-11.6-.073-23.242 4.187-34.2 8.55m10.277 52.474 22.96 33.215c.447.681 1.478.688 1.935.013l23.699-33.263c.522-.77 1.738-.626 2.05.242l30.215 87.307c.258.716-.297 1.462-1.086 1.462h-30.173c-.496 0-.937-.306-1.092-.758l-7.174-20.938c-.299-.873-1.514-1.033-2.047-.269l-14.415 20.656c-.455.652-1.455.652-1.91 0l-14.415-20.656c-.533-.764-1.748-.604-2.047.269l-7.174 20.938a1.15 1.15 0 0 1-1.092.758H40.15c-.794 0-1.348-.752-1.085-1.47L70.02 82.245c.32-.87 1.544-1.001 2.057-.221M78.9 59.66c5.479-2.182 11.3-3.394 17.1-3.357 5.827.037 11.629 1.086 17.1 3.357L96 78.682z"/></svg>
